X:1
T: The First Night in America
C:
R:Jig
Q:180
K:G
M:6/8
L:1/16
G2|G2F2G2 A2F2D2|G2F2G2 B2c2d2|e2f2g2 d2B2G2|A2B2G2 A2F2D2|G2F2G2 A2F2D2|G2F2G2 B2c2d2|e2f2g2 d2B2G2|A2G2G2 G4D2|
G2F2G2 A2F2D2|G2F2G2 B2c2d2|e2f2g2 d2B2G2|A2B2G2 A2F2D2|G2F2G2 A2F2D2|G2F2G2 B2c2d2|e2f2g2 d2B2G2|A2G2G2 G4d2|
g2f2g2 b2g2e2|d2c2d2 e2c2A2|B2d2g2 g2f2g2|a2b2g2 a2f2d2|g2f2g2 b2g2e2|d2c2d2 e2c2A2|B2d2g2 d2B2G2|A2G2G2 G4d2|
g2f2g2 b2g2e2|d2c2d2 e2c2A2|B2d2g2 g2f2g2|a2b2g2 a2f2d2|g2f2g2 b2g2e2|d2c2d2 e2c2A2|B2d2g2 d2B2G2|A2G2G2 G4||
